SF_Symbols/octagon.lefthalf.filled.svg

<?xml version="1.0" encoding="UTF-8"?>
<svg xmlns="http://www.w3.org/2000/svg" xmlns:xlink="http://www.w3.org/1999/xlink" width="24" height="24" viewBox="0 0 24 24" version="1.1">
<g id="surface1">
<path style=" stroke:none;fill-rule:nonzero;fill:rgb(100%,100%,100%);fill-opacity:1;" d="M 8.4375 23.894531 L 15.550781 23.894531 C 16.042969 23.894531 16.460938 23.84375 16.804688 23.742188 C 17.15625 23.640625 17.464844 23.488281 17.730469 23.285156 C 17.996094 23.089844 18.257812 22.855469 18.515625 22.582031 L 22.828125 17.800781 C 23.085938 17.519531 23.285156 17.257812 23.425781 17.015625 C 23.566406 16.765625 23.664062 16.503906 23.71875 16.230469 C 23.773438 15.949219 23.800781 15.613281 23.800781 15.222656 L 23.800781 9.867188 C 23.800781 9.476562 23.773438 9.144531 23.71875 8.871094 C 23.664062 8.589844 23.566406 8.328125 23.425781 8.085938 C 23.285156 7.835938 23.085938 7.570312 22.828125 7.289062 L 18.515625 2.507812 C 18.257812 2.226562 17.996094 1.988281 17.730469 1.792969 C 17.464844 1.597656 17.15625 1.449219 16.804688 1.347656 C 16.460938 1.238281 16.042969 1.183594 15.550781 1.183594 L 8.4375 1.183594 C 7.9375 1.183594 7.515625 1.238281 7.171875 1.347656 C 6.828125 1.449219 6.523438 1.597656 6.257812 1.792969 C 5.992188 1.988281 5.730469 2.226562 5.472656 2.507812 L 1.160156 7.289062 C 0.902344 7.570312 0.703125 7.835938 0.5625 8.085938 C 0.421875 8.328125 0.324219 8.589844 0.269531 8.871094 C 0.214844 9.144531 0.1875 9.476562 0.1875 9.867188 L 0.1875 15.222656 C 0.1875 15.613281 0.214844 15.949219 0.269531 16.230469 C 0.324219 16.503906 0.421875 16.765625 0.5625 17.015625 C 0.703125 17.257812 0.902344 17.519531 1.160156 17.800781 L 5.472656 22.582031 C 5.730469 22.855469 5.992188 23.089844 6.257812 23.285156 C 6.523438 23.488281 6.828125 23.640625 7.171875 23.742188 C 7.515625 23.84375 7.9375 23.894531 8.4375 23.894531 Z M 11.988281 3.070312 L 14.917969 3.070312 C 15.308594 3.070312 15.621094 3.101562 15.855469 3.164062 C 16.089844 3.226562 16.296875 3.328125 16.476562 3.46875 C 16.65625 3.609375 16.855469 3.796875 17.074219 4.03125 L 21.058594 8.425781 C 21.292969 8.683594 21.445312 8.917969 21.515625 9.128906 C 21.59375 9.339844 21.632812 9.660156 21.632812 10.089844 L 21.632812 15 C 21.632812 15.429688 21.59375 15.75 21.515625 15.960938 C 21.445312 16.171875 21.292969 16.40625 21.058594 16.664062 L 17.074219 21.058594 C 16.855469 21.292969 16.65625 21.480469 16.476562 21.621094 C 16.296875 21.761719 16.089844 21.863281 15.855469 21.925781 C 15.621094 21.988281 15.308594 22.019531 14.917969 22.019531 L 11.988281 22.019531 Z M 11.988281 3.070312 "/>
</g>
</svg>

<svg xmlns="http://www.w3.org/2000/svg" width="24" height="24"><path style="stroke:none;fill-rule:nonzero;fill:#fff;fill-opacity:1" d="M8.438 23.895h7.113c.492 0 .91-.051 1.254-.153.351-.101.66-.254.925-.457.266-.195.528-.43.786-.703l4.312-4.781a4.68 4.68 0 0 0 .598-.785c.14-.25.238-.512.293-.786.054-.28.082-.617.082-1.007V9.867c0-.39-.028-.722-.082-.996a2.445 2.445 0 0 0-.293-.785c-.14-.25-.34-.516-.598-.797l-4.312-4.781a5.451 5.451 0 0 0-.786-.715 2.94 2.94 0 0 0-.925-.445c-.344-.11-.762-.164-1.254-.164H8.437c-.5 0-.921.054-1.265.164-.344.101-.649.25-.914.445-.285.21-.547.453-.785.715L1.16 7.289c-.23.242-.43.508-.597.797-.141.242-.239.504-.293.785-.06.328-.086.66-.083.996v5.356c0 .39.028.726.083 1.007.054.274.152.536.292.786.141.242.34.504.598.785l4.313 4.781c.257.273.52.508.785.703.265.203.57.356.914.457.344.102.766.153 1.266.153Zm3.55-20.825h2.93c.39 0 .703.032.937.094.235.063.442.164.622.305.18.14.378.328.597.562l3.985 4.395c.234.258.386.492.457.703.078.21.117.531.117.96V15c0 .43-.04.75-.117.96-.07.212-.223.446-.457.704l-3.985 4.395c-.183.203-.383.39-.597.562a1.678 1.678 0 0 1-.622.305c-.234.062-.546.094-.937.094h-2.93Zm0 0"/></svg>
